!!!COM: Leszczyński, Władysław
!!!CDT: 1616-1680-09-24
!!!TXO: Latin
!!!OTL@@LAT: Sanctus
!!!ODT: 
!!!ARL: Archiwum Kapituły Katedralnej na Wawelu
!!!voices:	4
!!title: @{OTL}, @{GTL}, ed. @{ENC}
!!!pag:
!!!GTL: Missa cum Credo per Octavas
!!!EFL: 
!!!YEM: Creative Commons CC/BY/NC/SA 4.0
!!!ENC: Marcin Konik
!!!EED: Marcin Konik
!!!EEV: 
!!!ONB: Encoded in vim by Marcin Konik
!!!CharacterEncoding: utf-8
!!!RDF**kern: l=long note in original notation
!!!RDF**kern: i=editorial accidental
!!muse2ps: z14jc180F
!!!END: 2015-02-13
!!!YOO:
**kern	**text	**kern	**text	**kern	**text	**kern	**text
*part4	*part4	*part3	*part3	*part2	*part2	*part1	*part1
*staff4	*staff4	*staff3	*staff3	*staff2	*staff2	*staff1	*staff1
*clefF4	*	*clefGv2	*	*clefG2	*	*clefG2	*
*k[b-]	*	*k[b-]	*	*k[b-]	*	*k[b-]	*
*M3/1	*	*M3/1	*	*M3/1	*	*M3/1	*
=1-	=1-	=1-	=1-	=1-	=1-	=1-	=1-
0D	San-	0A	San-	0d	San-	0f	San-
1GG	-ctus	1B-	-ctus	1d	-ctus	1g	-ctus
=2	=2	=2	=2	=2	=2	=2	=2
0D	San-	0A	San-	0d	San-	0f	San-
1GG	-ctus	1G	-ctus	1d	-ctus	1g	-ctus
=3	=3	=3	=3	=3	=3	=3	=3
0D	San-	0F	San-	0d	San-	0a	San-
1G	.	1G	.	1d	.	1b-	-ctus
=4	=4	=4	=4	=4	=4	=4	=4
0D	-San-	0F	-San-	0d	-San-	0a	San-
1GG	-ctus	1G	-ctus	1d	.	1g	-ctus
=5	=5	=5	=5	=5	=5	=5	=5
0F	San-	1c	San-	0c	-San-	0a	San-
.	.	0c	.	.	.	.	.
1F	.	.	.	1f	.	1a	-ctus
=6	=6	=6	=6	=6	=6	=6	=6
1BB-	-San-	1d	-San-	1d	-San-	1.b-	San-
1F	.	1c	.	1a	.	.	.
.	.	.	.	.	.	2a	.
1G	.	1B-	.	1d	.	1g	.
=7	=7	=7	=7	=7	=7	=7	=7
0.D	ctus	0.A	ctus	0.d	ctus	0.f#	ctus
=8	=8	=8	=8	=8	=8	=8	=8
1.F	-Do-	1.A	-Do-	1.f	-Do-	1.cc	-Do-
2F	-mi-	2A	-mi-	2f	-mi-	2cc	-mi-
1F	-nus	1A	-nus	1f	-nus	1cc	-nus
=9	=9	=9	=9	=9	=9	=9	=9
0BB-	De-	0B-	De-	0d	De-	0dd	De-
1BB-	-us	1B-	-us	1d	-us	1dd	-us
=10	=10	=10	=10	=10	=10	=10	=10
0F	Sa-	0A	Sa-	0f	Sa-	0cc	Sa-
1G	-ba-	1G	-ba-	1f	-ba-	1b-	-ba-
=11	=11	=11	=11	=11	=11	=11	=11
0.D	-oth	0.F#	-oth	0.d	-oth	0.a	-oth
=12	=12	=12	=12	=12	=12	=12	=12
1.BB-	Ple-	0B-	Ple-	1.b-	Ple-	0dd	Ple-
2BB-	-ni	.	.	2a	-ni	.	.
1C	sunt	1c	-ni	1g	sunt	1ee-	-ni
=13	=13	=13	=13	=13	=13	=13	=13
0D	cae-	0d	sunt	0d	cae-	0ff	sunt
1BB-	-li	1B-	cae-	1f	-li	1dd	cae-
=14	=14	=14	=14	=14	=14	=14	=14
1.F	cae-	0A	-li	1.f	cae-	0cc	-li
2F	-li	.	.	2f	-li	.	.
1G	et	1G	et	1d	et	1b-	et
=15	=15	=15	=15	=15	=15	=15	=15
0D	ter-	0F#	ter-	0d	ter-	0a	ter-
1GG	-ra	1G	-ra	1B-	-ra	1g	-ra
=16	=16	=16	=16	=16	=16	=16	=16
1.G	glo-	1.d	glo-	1.g	glo-	1.b-	glo-
2A	-ri-	2c	-ri-	2g	-ri-	2cc	-ri-
1B-	-a	1B-	-a	1d	-a	1dd	-a
=17	=17	=17	=17	=17	=17	=17	=17
1F	tu-	1A	tu-	1f	tu-	1cc	tu-
0G	.	0G	.	0d	.	0b-	.
=18	=18	=18	=18	=18	=18	=18	=18
0.D	-a	0.F#	-a	0.d	-a	0.a	-a
=19	=19	=19	=19	=19	=19	=19	=19
1.BB-	glo-	1.d	glo-	1.f	glo-	1.b-	glo-
2BB-	-ri-	2d	-ri-	2f	-ri-	2b-	-ri-
1C	-a	2c	-a	1e-	-a	1cc	-a
.	.	2B-	.	.	.	.	.
=20	=20	=20	=20	=20	=20	=20	=20
0D	tu-	0A	tu-	0d	tu-	1.dd	glo-
.	.	.	.	.	.	2dd	-ri-
1BB-	-a	1B-	-a	1f	-a	1dd	-a
=21	=21	=21	=21	=21	=21	=21	=21
1.F	glo-	1.A	glo-	1.f	glo-	1.cc	glo-
2F	-ri-	2A	-ri-	2f	-ri-	2cc	-ri-
1G	-a	1G	-a	1d	.	1b-	.
=22	=22	=22	=22	=22	=22	=22	=22
0D	tu-	0F#	tu-	0d	-tu-	0a	-tu-
1G	-a	1G	-a	1B-	-a	1g	-a
=23	=23	=23	=23	=23	=23	=23	=23
1.G	glo-	1.d	glo-	1.g	glo-	1.b-	glo-
2A	-ri-	2c	-ri-	2g	-ri-	2a	-ri-
1B-	-a	1B-	.	1d	-a	1g	-a
=24	=24	=24	=24	=24	=24	=24	=24
1F	tu-	1A	-tu-	1f	tu-	0f	tu-
0G	.	0G	.	0d	.	.	.
.	.	.	.	.	.	1e	.
=25	=25	=25	=25	=25	=25	=25	=25
0.F	-a	0.F	-a	0.c	a	0.f	-a
=26	=26	=26	=26	=26	=26	=26	=26
1G	O-	1G	O-	1d	-O-	1b-	O-
1E-	-san-	1c	-san-	1c	-san-	1g	-san-
2F	-na	2c	-na	2c	-na	2a	-na
2F	o-	2c	o-	2c	o-	2a	o-
=27	=27	=27	=27	=27	=27	=27	=27
0BB-	-san-	0d	-san-	0B-	-san-	0b-	-san-
1BB-	-na	1d	-na	1d	-na	1b-	na
=28	=28	=28	=28	=28	=28	=28	=28
1B-	o-	1f	o-	1d	o-	1dd	-in
1E-	-san-	2e-	-san-	1g	-san-	2cc	ex-
.	.	2d	.	.	.	2b-	-cel-
2F	na	1c	.	2f	na	1a	.
2F	-o-	.	.	2f	-o-	.	.
=29	=29	=29	=29	=29	=29	=29	=29
0B-	-san-	0.d	-na	0f	-san-	0.b-	-sis
1BB-	na	.	.	1f	na	.	.
=30	=30	=30	=30	=30	=30	=30	=30
1BB-	-o-	1B-	o-	1f	-in	1dd	o-
1GG	-san-	1B-	-san-	1g	ex-	1b-	-san-
2BB-	na	2B-	-na	1f	-cel-	2dd	-na
2BB-	-o-	2B-	o-	.	.	2dd	o-
=31	=31	=31	=31	=31	=31	=31	=31
1.AA	-san-	0A	-san-	0.f	-sis	0cc	-san-
2GG	.	.	.	.	.	.	.
2FF	.	1A	-na	.	.	1a	-na
2F	na	.	.	.	.	.	.
=32	=32	=32	=32	=32	=32	=32	=32
1G	-o-	1d	o-	1g	o-	1b-	o-
1E-	-san-	1B-	-san-	1g	-san-	1g	-san-
1G	na	2d	.	2g	-na	2b-	-na
.	.	2d	-o-	2g	o-	2b-	o-
=33	=33	=33	=33	=33	=33	=33	=33
1.F	-o-	0c	-san-	1.f	-san-	1.a	-san-
2E	-san-	.	.	2e	.	2g	.
1D	na	1d	na	1f	-na	1f	na
=34	=34	=34	=34	=34	=34	=34	=34
1E-	-in	1G	-in	1e-	in	1b-	-in
1C	ex-	1c	ex-	1e-	ex-	1cc	ex-
1D	-cel-	1A	-cel-	1d	-cel-	1a	-cel-
=35	=35	=35	=35	=35	=35	=35	=35
0GG	-sis	0.B-	-sis	0B-	-sis	0g	-sis
1G	o-	.	.	1d	o-	1g	o-
=36	=36	=36	=36	=36	=36	=36	=36
1.G	-san-	1B-	o-	1.g	-san-	1.dd	-san-
.	.	2B-	-san-	.	.	.	.
2A	-na	2c	-na	2f	na	2dd	-na
1B-	o-	2d	in	1d	-o-	1dd	o-
.	.	2d	ex-	.	.	.	.
=37	=37	=37	=37	=37	=37	=37	=37
1.F	-san-	0c	-cel-	1.f	-san-	1.a	-san-
2F	-na	.	.	2f	na	2a	.
1G	in	1B-	-sis	1d	-in	1b-	-in
=38	=38	=38	=38	=38	=38	=38	=38
1C	ex-	1G	in	0e-	ex-	1cc	ex-
0D	-cel-	0A	ex-	.	.	0dd	-cel-
.	.	.	.	1d	-cel-	.	.
=39	=39	=39	=39	=39	=39	=39	=39
0GG	-sis	0G	-cel-	0d	.	0dd	-sis
1FF	in	1A	.	1f	-in	1cc	in
=40	=40	=40	=40	=40	=40	=40	=40
1GG	ex-	1G	-ex-	1d	ex-	0b-	ex-
0D	-cel-	0F#	-cel-	0d	-cel-	.	.
.	.	.	.	.	.	1a	-cel-
=41	=41	=41	=41	=41	=41	=41	=41
0.GG	-sis	0.G	sis	0.d	-sis	0.g	-sis
=42	=42	=42	=42	=42	=42	=42	=42
*M2/2	*	*M2/2	*	*M2/2	*	*M2/2	*
1r	.	4G	-Be-	4g	Be-	4b-	Be-
.	.	4G	-ne-	4g	-ne-	4b-	-ne-
.	.	4A	-di-	4f	-di-	4cc	-di-
.	.	4A	-ctus	4f	-ctus	4cc	-ctus
=43	=43	=43	=43	=43	=43	=43	=43
1r	.	4B-	qui	4B-	qui	4dd	qui
.	.	4B-	ve-	4B-	ve-	4dd	ve-
.	.	2G	-nit	2e-	-nit	2b-	-nit
=44	=44	=44	=44	=44	=44	=44	=44
1r	.	4r	.	2e-	in	4r	.
.	.	4G	in	.	.	4b-	in
.	.	4.c	No-	4.c	No-	2ee-	No-
.	.	8c	-mi-	8c	-mi-	.	.
=45	=45	=45	=45	=45	=45	=45	=45
1r	.	4d	-ne	4g	-ne	4dd	-mi-
.	.	4c	.	4f	.	4cc	-ne
.	.	4.B-	Do-	4.g	Do-	4.dd	Do-
.	.	8B-	-mi-	8g	-mi-	8dd	-mi-
=46	=46	=46	=46	=46	=46	=46	=46
1r	.	1c	-ni	1c	-ni	1cc	-ni
=47	=47	=47	=47	=47	=47	=47	=47
4G	Be-	4B-	Be-	1r	.	4g	Be-
4G	-ne-	4B-	-ne-	.	.	4g	-ne-
4F	-di-	4c	-di-	.	.	4a	-di-
4F	-ctus	4c	-ctus	.	.	4a	-ctus
=48	=48	=48	=48	=48	=48	=48	=48
4BB-	qui	4d	qui	1r	.	4b-	qui
4BB-	ve-	4d	ve-	.	.	4b-	ve-
2E-	-nit	2B-	-nit	.	.	2g	-nit
=49	=49	=49	=49	=49	=49	=49	=49
2E-	in	4r	.	1r	.	4r	.
.	.	4B-	in	.	.	4g	in
4.C	No-	2e-	No-	.	.	4.cc	[No-
8C	-mi-	.	.	.	.	8cc	-mi]-
=50	=50	=50	=50	=50	=50	=50	=50
4G	-ne	4d	-mi-	1r	.	4dd	-ne
4F	.	4c	-ne	.	.	4cc	.
4.G	Do-	4.d	Do-	.	.	4.b-	Do-
8G	-mi-	8d	-mi-	.	.	8b-	-mi-
=51	=51	=51	=51	=51	=51	=51	=51
1C	-ni	1c	ni	1r	.	1cc	-ni
=52	=52	=52	=52	=52	=52	=52	=52
4C	Be-	4G	-Be-	4e	Be-	4cc	Be-
4C	-ne-	4G	-ne-	4e	-ne-	4cc	-ne-
4G	-di-	4B-	-di-	4g	-di-	4b-	-di-
4F	-ctus	4c	-ctus	4g	-ctus	4g	-ctus
=53	=53	=53	=53	=53	=53	=53	=53
4D	qui	4B-	qui	4f	qui	4b-	qui
4C	ve-	4G	ve-	4e	ve-	4cc	ve-
2FF	-nit	4A	-nit	4f	-nit	4a	-nit
.	.	4A	in	4f	in	4b-	in
=54	=54	=54	=54	=54	=54	=54	=54
2FF	in	2A	No-	2f	No-	2cc	No-
4GG	No-	4G	-mi-	8cL	-mi-	4b-	-mi-
.	.	.	.	8dJ	.	.	.
8AA	-mi-	4F	-ne	4e	-ne	4a	-ne
8BB-	-ne	.	.	.	.	.	.
=55	=55	=55	=55	=55	=55	=55	=55
4.C	Do-	4.E	Do-	4.e	Do-	4.g	Do-
8C	-mi-	8E	-mi-	8e	-mi-	8g	-mi-
2FF	ni	2F	-ni	2f	ni	2f	ni
=56	=56	=56	=56	=56	=56	=56	=56
4BB-	-in	4B-	in	4f	-in	4dd	-in
2FF	No-	2A	No-	2f	No-	2cc	No-
8GG	-mi-	8G	-mi-	8d	-mi-	8b-	-mi-
8GG	-ne	8G	-ne	8d	-ne	8b-	-ne
=57	=57	=57	=57	=57	=57	=57	=57
4.D	Do-	4.F#	Do-	4.d	Do-	4.a	Do-
8D	-mi-	8F#	-mi-	8d	-mi-	8a	-mi-
4GG	-ni	4G	-ni	4d	-ni	4g	-ni
4G	in	4G	in	4d	in	4b-	in
=58	=58	=58	=58	=58	=58	=58	=58
4C	No-	4e	No-	4c	No-	4g	No-
8C	-mi-	8e	-mi-	8c	-mi-	8g	-mi-
8BB-	-ne	8d	-ne	8c	-ne	8g	-ne
4.D	Do-	4.d	Do-	4.d	Do-	4.a	Do-
8D	-mi-	8d	-mi-	8d	-mi-	8a	-mi-
=59	=59	=59	=59	=59	=59	=59	=59
1GG	-ni.	1B	-ni.	1d	-ni.	1g	-ni.
==	==	==	==	==	==	==	==
*-	*-	*-	*-	*-	*-	*-	*-
